static/assets/template/assets/img/icons/essential/detailed/Receiving_money_3.svg

<svg height="115" viewBox="0 0 149 115" width="149" xmlns="http://www.w3.org/2000/svg"><g fill="none" fill-rule="evenodd" transform="translate(1 2)"><path d="m63.4 73.8h-11.2c-5.2 0-9.5-4.2-9.5-9.5 0-5.2 4.2-9.5 9.5-9.5l60.4 3.5" fill-rule="nonzero"/><path d="m109 79.5-4 1.4-2 .7-2 .7-2 .7-37.6 12.9c-3 1-6.2 1-9.2 0l-19.2-6.5c-1.2-.4-2.4-1-3.4-1.8l-24.1-18.5c-.2-.1-.4-.2-.5-.4-.1-.1-.3-.2-.4-.3s-.3-.2-.4-.3-.3-.2-.4-.4c-.1-.1-.3-.2-.4-.4-.1-.1-.1-.1-.2-.2-.2-.2-.3-.4-.5-.6-.1-.1-.2-.2-.3-.4-.1-.1-.1-.2-.2-.3-.4-.6-.7-1.3-.9-2-.1-.2-.1-.4-.2-.6 0-.2-.1-.3-.1-.5-.1-.6-.2-1.2-.2-1.9 0-1.7.5-3.4 1.4-5 2.8-4.4 8.6-5.8 13-3.1l27.2 16.6.1.1.2.1.4.3 2.6 1.6 21.6 2.7 4.3.5z" fill-rule="nonzero"/><path d="m69.8 76.4 35.2 4.4-2 .7-2 .7-2 .7-37.6 12.9c-3 1-6.2 1-9.2 0l-19.2-6.5c-1.2-.4-2.4-1-3.4-1.8l-24.1-18.5c-.2-.1-.4-.2-.5-.4-.1-.1-.3-.2-.4-.3s-.3-.2-.4-.3-.3-.2-.4-.4c-.1-.1-.3-.2-.4-.4-.1-.1-.1-.1-.2-.2-.2-.2-.3-.4-.5-.6-.1-.1-.2-.2-.3-.4-.1-.1-.1-.2-.2-.3-.4-.6-.7-1.3-.9-2-.1-.2-.1-.4-.2-.6.1-.2.1-.4.2-.7.1-.2.2-.4.3-.7.1-.1.1-.3.2-.4s.1-.3.2-.4.2-.3.3-.4c2.8-4.4 8.6-5.8 13-3.1l30.6 18.7c-.7-.6-1.3-1.3-1.8-2-.3-.4-.5-.9-.8-1.4-.2-.4-.3-.8-.4-1.2l.4.3.7.5 1.8 1.1c-1.1-.9-2-2.1-2.6-3.4-.3-.8-.6-1.6-.7-2.4.7-4.6 4.6-8 9.3-8l52.9 3.1-37.3 11.7-4.3 1.3 2.1.3 2.1.3z" fill-rule="nonzero"/><path d="m1.1 63.3v.5.5c-.1-.4-.1-.7 0-1z" fill-rule="nonzero"/><path d="m67.7 77.1 35.3 4.4-2 .7-2 .7-37.6 12.9c-3 1-6.2 1-9.2 0l-19.2-6.5c-1.2-.4-2.4-1-3.4-1.8l-24.1-18.5c-.2-.1-.4-.2-.5-.4-.1-.1-.3-.2-.4-.3s-.3-.2-.4-.3-.3-.2-.4-.4c-.1-.1-.3-.2-.4-.4-.1-.1-.1-.1-.2-.2-.2-.2-.3-.4-.5-.6-.1-.1-.2-.2-.3-.4-.1-.1-.1-.2-.2-.3-.4-.6-.7-1.3-.9-2-.1-.2-.1-.4-.2-.6.1-.2.1-.4.2-.7.1-.2.2-.4.3-.7.1-.1.1-.3.2-.4s.1-.3.2-.4.2-.3.3-.4c2.8-4.4 8.6-5.8 13-3.1l30.6 18.7c-.7-.6-1.3-1.3-1.8-2-.3-.4-.5-.9-.8-1.4l.8.5 1.8 1.1c-.7-.6-1.3-1.3-1.8-2-.5-.8-.9-1.7-1.2-2.6-.1-.6-.3-1.1-.3-1.7 0-.1 0-.3 0-.4s0-.3 0-.4c0-.2 0-.4 0-.5v.5c0 .2 0 .3.1.5.7-4.6 4.6-8 9.3-8l52.9 3.1-37.3 11.7-4.3 1.3 2.1.3-2.1.7 2.1.3z" fill-rule="nonzero"/><path d="m108.2 79.8-46.8 15.9c-3 1-6.2 1-9.2 0l-19.2-6.5c-1.2-.4-2.4-1-3.4-1.8l-24.1-18.5c-.2-.1-.4-.2-.5-.4-.1-.1-.3-.2-.4-.3s-.3-.2-.4-.3-.3-.2-.4-.4c-.1-.1-.3-.2-.4-.4-.1-.1-.1-.1-.2-.2-.2-.2-.3-.4-.5-.6-.1-.1-.2-.2-.3-.4-.1-.1-.1-.2-.2-.3-.4-.6-.7-1.3-.9-2-.1-.2-.1-.4-.2-.6.1-.2.1-.4.2-.7.1-.2.2-.4.3-.7.1-.1.1-.3.2-.4s.1-.3.2-.4.2-.3.3-.4c2.8-4.4 8.6-5.8 13-3.1l30.6 18.7c-.7-.6-1.3-1.3-1.8-2-.3-.4-.5-.9-.8-1.4-.2-.4-.3-.8-.4-1.2-.2-.7-.3-1.4-.4-2.1 0-.2 0-.4 0-.5 0-.2 0-.4 0-.5s0-.3 0-.4c0-.1 0-.3.1-.4.7-4.6 4.6-8 9.3-8l57 3.5" fill-rule="nonzero"/><g stroke-linecap="round" stroke-linejoin="round" stroke-width="3"><g transform="translate(1 110)"><path d="m1.5.6h-1"/><path d="m18.7.6h-13"/><path d="m24.2.6h-1"/><path d="m108.7.6h-78.9"/><path d="m134.6.6h-21.4"/><path d="m140.3.6h-1.6"/><path d="m145.1.6h-.3"/></g><path d="m142.8 94h-13.2c-12.1 0-21.8-9.8-21.8-21.8 0-12.1 9.8-21.8 21.8-21.8h13.2"/><path d="m127.4 56.7c.7-.2 1.5-.3 2.3-.3"/><path d="m115.3 75.3c-.2-1-.3-2.1-.3-3.2 0-6.2 3.6-11.6 8.8-14.1"/><path d="m63.4 73.8h-11.2c-5.2 0-9.5-4.2-9.5-9.5 0-5.2 4.2-9.5 9.5-9.5l60.4 3.5"/><path d="m73.1 73.8h-2.6"/><path d="m46.1 71.6-2.6-1.6-.4-.3-.2-.1-.1-.1-27.2-16.6c-4.4-2.8-10.3-1.4-13 3.1-1 1.5-1.4 3.3-1.4 5 0 .6.1 1.2.2 1.9 0 .2.1.3.1.5 0 .2.1.4.2.6.2.7.5 1.3.9 2 .1.1.1.2.2.3s.2.3.3.4c.1.2.3.4.5.6 0 .1.1.1.2.2s.2.3.4.4l.4.4c.1.1.2.2.4.3.1.1.3.2.4.3.2.1.3.2.5.4l24.1 18.5c1 .8 2.2 1.4 3.4 1.8l19.2 6.5c3 1 6.2 1 9.2 0l37.6-12.9 2-.7 2-.7 2-.7"/><path d="m39 39.6v9.2h53.9v-9.2z"/><path d="m92.9 54.7h-53.9v9.3"/><path d="m39 10.4c0 5.7 12.1 10.4 26.9 10.4 3.1 0 6-.2 8.7-.6 10.6-1.4 18.2-5.3 18.2-9.8 0-5.7-12.1-10.4-26.9-10.4-8.7 0-16.4 1.6-21.4 4.1"/><path d="m72.5 15.9c4.1-.2 7.4-1.1 9.4-2.4"/><path d="m66 5.2c-5.3 0-10.2.6-14.4 1.6"/><path d="m74.1 5.7c-.8-.1-1.5-.2-2.3-.2"/><path d="m92.9 10.4v9.5c0 5.7-12.1 10.4-26.9 10.4-14.9 0-26.9-4.7-26.9-10.4v-9.5"/><path d="m50.6 19v4"/><path d="m56 20.1v5.4"/><path d="m59.3 20.5v3.4"/><path d="m71.8 20.8v5.1"/><path d="m75.1 23.4v-2.6"/><path d="m59.3 44.2h1.8"/><path d="m42.7 44.2h13.3"/></g></g></svg>

<?xml version="1.0" encoding="UTF-8"?>
<svg width="149px" height="115px" viewBox="0 0 149 115" version="1.1" xmlns="http://www.w3.org/2000/svg" xmlns:xlink="http://www.w3.org/1999/xlink">
    <!-- Generator: Sketch 51.2 (57519) - http://www.bohemiancoding.com/sketch -->
    <title>Receiving_money_3</title>
    <desc>Created with Sketch.</desc>
    <defs></defs>
    <g id="Page-1" stroke="none" stroke-width="1" fill="none" fill-rule="evenodd">
        <g id="Receiving_money_3" transform="translate(1.000000, 2.000000)">
            <path d="M63.4,73.8 L52.2,73.8 C47,73.8 42.7,69.6 42.7,64.3 C42.7,59.1 46.9,54.8 52.2,54.8 L112.6,58.3" id="Shape" class="fill-neutral" fill-rule="nonzero"></path>
            <path d="M109,79.5 L105,80.9 L103,81.6 L101,82.3 L99,83 L61.4,95.9 C58.4,96.9 55.2,96.9 52.2,95.9 L33,89.4 C31.8,89 30.6,88.4 29.6,87.6 L5.5,69.1 C5.3,69 5.1,68.9 5,68.7 C4.9,68.6 4.7,68.5 4.6,68.4 C4.5,68.3 4.3,68.2 4.2,68.1 C4.1,68 3.9,67.9 3.8,67.7 C3.7,67.6 3.5,67.5 3.4,67.3 C3.3,67.2 3.3,67.2 3.2,67.1 C3,66.9 2.9,66.7 2.7,66.5 C2.6,66.4 2.5,66.3 2.4,66.1 C2.3,66 2.3,65.9 2.2,65.8 C1.8,65.2 1.5,64.5 1.3,63.8 C1.2,63.6 1.2,63.4 1.1,63.2 C1.1,63.2 1.1,63.2 1.1,63.2 C1.1,63 1,62.9 1,62.7 C1,62.7 1,62.7 1,62.7 C0.9,62.1 0.8,61.5 0.8,60.8 C0.8,59.1 1.3,57.4 2.2,55.8 C5,51.4 10.8,50 15.2,52.7 L42.4,69.3 L42.5,69.4 L42.7,69.5 L43.1,69.8 L45.7,71.4 L67.3,74.1 L71.6,74.6 L109,79.5 Z" id="Shape" class="fill-neutral" fill-rule="nonzero"></path>
            <path d="M69.8,76.4 L105,80.8 L103,81.5 L101,82.2 L99,82.9 L61.4,95.8 C58.4,96.8 55.2,96.8 52.2,95.8 L33,89.3 C31.8,88.9 30.6,88.3 29.6,87.5 L5.5,69 C5.3,68.9 5.1,68.8 5,68.6 C4.9,68.5 4.7,68.4 4.6,68.3 C4.5,68.2 4.3,68.1 4.2,68 C4.1,67.9 3.9,67.8 3.8,67.6 C3.7,67.5 3.5,67.4 3.4,67.2 C3.3,67.1 3.3,67.1 3.2,67 C3,66.8 2.9,66.6 2.7,66.4 C2.6,66.3 2.5,66.2 2.4,66 C2.3,65.9 2.3,65.8 2.2,65.7 C1.8,65.1 1.5,64.4 1.3,63.7 C1.2,63.5 1.2,63.3 1.1,63.1 C1.1,63.1 1.1,63.1 1.1,63.1 C1.2,62.9 1.2,62.7 1.3,62.4 C1.4,62.2 1.5,62 1.6,61.7 C1.7,61.6 1.7,61.4 1.8,61.3 C1.9,61.2 1.9,61 2,60.9 C2.1,60.8 2.2,60.6 2.3,60.5 C5.1,56.1 10.9,54.7 15.3,57.4 L45.9,76.1 C45.2,75.5 44.6,74.8 44.1,74.1 C43.8,73.7 43.6,73.2 43.3,72.7 C43.1,72.3 43,71.9 42.9,71.5 L43.3,71.8 L44,72.3 L45.8,73.4 C44.7,72.5 43.8,71.3 43.2,70 C42.9,69.2 42.6,68.4 42.5,67.6 C43.2,63 47.1,59.6 51.8,59.6 L104.7,62.7 L67.4,74.4 L63.1,75.7 L65.2,76 L67.3,76.3 L69.8,76.4 Z" id="Shape" class="fill-primary-100" fill-rule="nonzero"></path>
            <path d="M1.1,63.3 C1.1,63.5 1.1,63.6 1.1,63.8 C1.1,63.8 1.1,63.8 1.1,63.8 C1.1,64 1.1,64.1 1.1,64.3 C1,63.9 1,63.6 1.1,63.3 Z" id="Shape" class="fill-primary-100" fill-rule="nonzero"></path>
            <path d="M67.7,77.1 L103,81.5 L101,82.2 L99,82.9 L61.4,95.8 C58.4,96.8 55.2,96.8 52.2,95.8 L33,89.3 C31.8,88.9 30.6,88.3 29.6,87.5 L5.5,69 C5.3,68.9 5.1,68.8 5,68.6 C4.9,68.5 4.7,68.4 4.6,68.3 C4.5,68.2 4.3,68.1 4.2,68 C4.1,67.9 3.9,67.8 3.8,67.6 C3.7,67.5 3.5,67.4 3.4,67.2 C3.3,67.1 3.3,67.1 3.2,67 C3,66.8 2.9,66.6 2.7,66.4 C2.6,66.3 2.5,66.2 2.4,66 C2.3,65.9 2.3,65.8 2.2,65.7 C1.8,65.1 1.5,64.4 1.3,63.7 C1.2,63.5 1.2,63.3 1.1,63.1 C1.1,63.1 1.1,63.1 1.1,63.1 C1.2,62.9 1.2,62.7 1.3,62.4 C1.4,62.2 1.5,62 1.6,61.7 C1.7,61.6 1.7,61.4 1.8,61.3 C1.9,61.2 1.9,61 2,60.9 C2.1,60.8 2.2,60.6 2.3,60.5 C5.1,56.1 10.9,54.7 15.3,57.4 L45.9,76.1 C45.2,75.5 44.6,74.8 44.1,74.1 C43.8,73.7 43.6,73.2 43.3,72.7 L44.1,73.2 L45.9,74.3 C45.2,73.7 44.6,73 44.1,72.3 C43.6,71.5 43.2,70.6 42.9,69.7 C42.8,69.1 42.6,68.6 42.6,68 C42.6,68 42.6,68 42.6,68 C42.6,67.9 42.6,67.7 42.6,67.6 C42.6,67.5 42.6,67.3 42.6,67.2 C42.6,67 42.6,66.8 42.6,66.7 C42.6,66.9 42.6,67 42.6,67.2 C42.6,67.2 42.6,67.2 42.6,67.2 C42.6,67.4 42.6,67.5 42.7,67.7 C43.4,63.1 47.3,59.7 52,59.7 L104.9,62.8 L67.6,74.5 L63.3,75.8 L65.4,76.1 L63.3,76.8 L65.4,77.1 L67.7,77.1 Z" id="Shape" class="fill-primary-100" fill-rule="nonzero"></path>
            <path d="M108.2,79.8 L61.4,95.7 C58.4,96.7 55.2,96.7 52.2,95.7 L33,89.2 C31.8,88.8 30.6,88.2 29.6,87.4 L5.5,68.9 C5.3,68.8 5.1,68.7 5,68.5 C4.9,68.4 4.7,68.3 4.6,68.2 C4.5,68.1 4.3,68 4.2,67.9 C4.1,67.8 3.9,67.7 3.8,67.5 C3.7,67.4 3.5,67.3 3.4,67.1 C3.3,67 3.3,67 3.2,66.9 C3,66.7 2.9,66.5 2.7,66.3 C2.6,66.2 2.5,66.1 2.4,65.9 C2.3,65.8 2.3,65.7 2.2,65.6 C1.8,65 1.5,64.3 1.3,63.6 C1.2,63.4 1.2,63.2 1.1,63 C1.1,63 1.1,63 1.1,63 C1.2,62.8 1.2,62.6 1.3,62.3 C1.4,62.1 1.5,61.9 1.6,61.6 C1.7,61.5 1.7,61.3 1.8,61.2 C1.9,61.1 1.9,60.9 2,60.8 C2.1,60.7 2.2,60.5 2.3,60.4 C5.1,56 10.9,54.6 15.3,57.3 L45.9,76 C45.2,75.4 44.6,74.7 44.1,74 C43.8,73.6 43.6,73.1 43.3,72.6 C43.1,72.2 43,71.8 42.9,71.4 C42.9,71.4 42.9,71.4 42.9,71.4 C42.7,70.7 42.6,70 42.5,69.3 C42.5,69.1 42.5,68.9 42.5,68.8 C42.5,68.6 42.5,68.4 42.5,68.3 C42.5,68.2 42.5,68 42.5,67.9 C42.5,67.9 42.5,67.9 42.5,67.9 C42.5,67.8 42.5,67.6 42.6,67.5 C43.3,62.9 47.2,59.5 51.9,59.5 L108.9,63" id="Shape" class="fill-primary-100" fill-rule="nonzero"></path>
            <g id="Group" transform="translate(1.000000, 110.000000)" class="stroke-primary-300" stroke-linecap="round" stroke-linejoin="round" stroke-width="3">
                <path d="M1.5,0.6 L0.5,0.6" id="Shape"></path>
                <path d="M18.7,0.6 L5.7,0.6" id="Shape"></path>
                <path d="M24.2,0.6 L23.2,0.6" id="Shape"></path>
                <path d="M108.7,0.6 L29.8,0.6" id="Shape"></path>
                <path d="M134.6,0.6 L113.2,0.6" id="Shape"></path>
                <path d="M140.3,0.6 L138.7,0.6" id="Shape"></path>
                <path d="M145.1,0.6 L144.8,0.6" id="Shape"></path>
            </g>
            <path d="M142.8,94 L129.6,94 C117.5,94 107.8,84.2 107.8,72.2 C107.8,60.1 117.6,50.4 129.6,50.4 L142.8,50.4" id="Shape" class="stroke-primary" stroke-width="3" stroke-linecap="round" stroke-linejoin="round"></path>
            <path d="M127.4,56.7 C128.1,56.5 128.9,56.4 129.7,56.4" id="Shape" class="stroke-primary" stroke-width="3" stroke-linecap="round" stroke-linejoin="round"></path>
            <path d="M115.3,75.3 C115.1,74.3 115,73.2 115,72.1 C115,65.9 118.6,60.5 123.8,58" id="Shape" class="stroke-primary" stroke-width="3" stroke-linecap="round" stroke-linejoin="round"></path>
            <path d="M63.4,73.8 L52.2,73.8 C47,73.8 42.7,69.6 42.7,64.3 C42.7,59.1 46.9,54.8 52.2,54.8 L112.6,58.3" id="Shape" class="stroke-primary" stroke-width="3" stroke-linecap="round" stroke-linejoin="round"></path>
            <path d="M73.1,73.8 L70.5,73.8" id="Shape" class="stroke-primary" stroke-width="3" stroke-linecap="round" stroke-linejoin="round"></path>
            <path d="M46.1,71.6 L43.5,70 L43.1,69.7 L42.9,69.6 L42.8,69.5 L15.6,52.9 C11.2,50.1 5.3,51.5 2.6,56 C1.6,57.5 1.2,59.3 1.2,61 C1.2,61.6 1.3,62.2 1.4,62.9 C1.4,62.9 1.4,62.9 1.4,62.9 C1.4,63.1 1.5,63.2 1.5,63.4 C1.5,63.4 1.5,63.4 1.5,63.4 C1.5,63.6 1.6,63.8 1.7,64 C1.9,64.7 2.2,65.3 2.6,66 C2.7,66.1 2.7,66.2 2.8,66.3 C2.9,66.4 3,66.6 3.1,66.7 C3.2,66.9 3.4,67.1 3.6,67.3 C3.6,67.4 3.7,67.4 3.8,67.5 C3.9,67.6 4,67.8 4.2,67.9 C4.3,68 4.4,68.1 4.6,68.3 C4.7,68.4 4.8,68.5 5,68.6 C5.1,68.7 5.3,68.8 5.4,68.9 C5.6,69 5.7,69.1 5.9,69.3 L30,87.8 C31,88.6 32.2,89.2 33.4,89.6 L52.6,96.1 C55.6,97.1 58.8,97.1 61.8,96.1 L99.4,83.2 L101.4,82.5 L103.4,81.8 L105.4,81.1" id="Shape" class="stroke-primary" stroke-width="3" stroke-linecap="round" stroke-linejoin="round"></path>
            <polyline id="Shape" class="stroke-primary" stroke-width="3" stroke-linecap="round" stroke-linejoin="round" points="39 39.6 39 48.8 92.9 48.8 92.9 39.6 39 39.6"></polyline>
            <polyline id="Shape" class="stroke-primary" stroke-width="3" stroke-linecap="round" stroke-linejoin="round" points="92.9 54.7 39 54.7 39 64"></polyline>
            <path d="M39,10.4 C39,16.1 51.1,20.8 65.9,20.8 C69,20.8 71.9,20.6 74.6,20.2 C85.2,18.8 92.8,14.9 92.8,10.4 C92.8,4.7 80.7,0 65.9,0 C57.2,0 49.5,1.6 44.5,4.1" id="Shape" class="stroke-primary" stroke-width="3" stroke-linecap="round" stroke-linejoin="round"></path>
            <path d="M72.5,15.9 C76.6,15.7 79.9,14.8 81.9,13.5" id="Shape" class="stroke-primary" stroke-width="3" stroke-linecap="round" stroke-linejoin="round"></path>
            <path d="M66,5.2 C60.7,5.2 55.8,5.8 51.6,6.8" id="Shape" class="stroke-primary" stroke-width="3" stroke-linecap="round" stroke-linejoin="round"></path>
            <path d="M74.1,5.7 C73.3,5.6 72.6,5.5 71.8,5.5" id="Shape" class="stroke-primary" stroke-width="3" stroke-linecap="round" stroke-linejoin="round"></path>
            <path d="M92.9,10.4 L92.9,19.9 C92.9,25.6 80.8,30.3 66,30.3 C51.1,30.3 39.1,25.6 39.1,19.9 L39.1,10.4" id="Shape" class="stroke-primary" stroke-width="3" stroke-linecap="round" stroke-linejoin="round"></path>
            <path d="M50.6,19 L50.6,23" id="Shape" class="stroke-primary" stroke-width="3" stroke-linecap="round" stroke-linejoin="round"></path>
            <path d="M56,20.1 L56,25.5" id="Shape" class="stroke-primary" stroke-width="3" stroke-linecap="round" stroke-linejoin="round"></path>
            <path d="M59.3,20.5 L59.3,23.9" id="Shape" class="stroke-primary" stroke-width="3" stroke-linecap="round" stroke-linejoin="round"></path>
            <path d="M71.8,20.8 L71.8,25.9" id="Shape" class="stroke-primary" stroke-width="3" stroke-linecap="round" stroke-linejoin="round"></path>
            <path d="M75.1,23.4 L75.1,20.8" id="Shape" class="stroke-primary" stroke-width="3" stroke-linecap="round" stroke-linejoin="round"></path>
            <path d="M59.3,44.2 L61.1,44.2" id="Shape" class="stroke-primary" stroke-width="3" stroke-linecap="round" stroke-linejoin="round"></path>
            <path d="M42.7,44.2 L56,44.2" id="Shape" class="stroke-primary" stroke-width="3" stroke-linecap="round" stroke-linejoin="round"></path>
        </g>
    </g>
</svg>
